X: 0612
T: YOUNG'S HORNPIPE
B: Oliver Ditson "The Boston Collection of Instrumental Music" 1910 p.61 #2
F: http://conquest.imslp.info/files/imglnks/usimg/8/8f/IMSLP175643-PMLP309456-bostoncollection00bost_bw.pdf
M: 2/2
L: 1/8
K: D
A2 |\
d2f2 f2ef | g>f e>d c>B A>G | FAdA BAGF | EFGE dcBA |\
d2f2 f2ef | g>f e>d c>B A>G | FAdA BGFE | F2D2 D2 :|
a>g |\
(3fga ce dfeg | (3fga ce dfeg | fad'a bagf | efge dcBA |\
(3fga ce dfeg | (3fga ce dfeg | fad'a bgfe | d2f2 d2 :|

%%sep 1 1 500
%%sep 1 1 500
